dist/assets/images/applyJobs/second_step.svg

<svg width="54" height="54" viewBox="0 0 54 54" fill="none" xmlns="http://www.w3.org/2000/svg">
<path d="M54 27C54 41.9117 41.9117 54 27 54C12.0883 54 0 41.9117 0 27C0 12.0883 12.0883 0 27 0C41.9117 0 54 12.0883 54 27ZM3.49998 27C3.49998 39.9787 14.0213 50.5 27 50.5C39.9787 50.5 50.5 39.9787 50.5 27C50.5 14.0213 39.9787 3.49998 27 3.49998C14.0213 3.49998 3.49998 14.0213 3.49998 27Z" fill="#DDDDDD"/>
<path d="M27 1.74999C27 0.783498 27.7843 -0.00590676 28.7488 0.0566925C31.6962 0.247997 34.5964 0.921929 37.3325 2.05525C40.6082 3.41213 43.5847 5.40094 46.0919 7.90812C48.5991 10.4153 50.5879 13.3918 51.9447 16.6676C53.3016 19.9433 54 23.4543 54 27C54 30.5457 53.3016 34.0567 51.9447 37.3325C50.5879 40.6082 48.5991 43.5847 46.0919 46.0919C43.5847 48.5991 40.6082 50.5879 37.3324 51.9448C34.5964 53.0781 31.6962 53.752 28.7488 53.9433C27.7843 54.0059 27 53.2165 27 52.25C27 51.2835 27.7846 50.5068 28.7484 50.4349C31.2358 50.2493 33.6817 49.6686 35.9931 48.7112C38.8442 47.5302 41.4348 45.7992 43.617 43.617C45.7992 41.4348 47.5302 38.8442 48.7112 35.9931C49.8922 33.1419 50.5 30.0861 50.5 27C50.5 23.9139 49.8922 20.8581 48.7112 18.0069C47.5302 15.1558 45.7992 12.5652 43.617 10.383C41.4348 8.2008 38.8442 6.4698 35.9931 5.28882C33.6817 4.33142 31.2358 3.75069 28.7484 3.56511C27.7846 3.4932 27 2.71649 27 1.74999Z" fill="#2E1AAD"/>
<path d="M14 32.98H24.08V30.42H18.22L21.44 27.6C22.0133 27.1 22.4967 26.6533 22.89 26.26C23.2833 25.86 23.58 25.4267 23.78 24.96C23.98 24.4867 24.08 23.8933 24.08 23.18C24.08 22.2133 23.8667 21.3633 23.44 20.63C23.0133 19.8967 22.4267 19.3267 21.68 18.92C20.94 18.5067 20.1 18.3 19.16 18.3C18.1333 18.3 17.2333 18.4967 16.46 18.89C15.6867 19.2833 15.0833 19.84 14.65 20.56C14.2167 21.28 14 22.1333 14 23.12H16.8C16.7867 22.72 16.8767 22.35 17.07 22.01C17.2633 21.6633 17.5333 21.3867 17.88 21.18C18.2333 20.9667 18.64 20.86 19.1 20.86C19.76 20.86 20.2867 21.0767 20.68 21.51C21.08 21.9367 21.28 22.48 21.28 23.14C21.28 23.4467 21.1867 23.7767 21 24.13C20.8133 24.4833 20.4933 24.86 20.04 25.26L14 30.62V32.98Z" fill="#231F20"/>
<path d="M30.032 22.48H31.24L28.168 34H26.96L30.032 22.48ZM36.4191 34.232C37.1285 34.232 37.7578 34.0747 38.3071 33.76C38.8618 33.44 39.2965 33 39.6111 32.44C39.9311 31.8747 40.0911 31.224 40.0911 30.488C40.0911 29.768 39.9445 29.1333 39.6511 28.584C39.3578 28.0347 38.9471 27.608 38.4191 27.304C37.8911 26.9947 37.2778 26.8427 36.5791 26.848L39.9551 23.624V22.48H33.2991V23.608H38.4591L34.4991 27.264L35.0911 28.2C35.2885 28.104 35.5018 28.0267 35.7311 27.968C35.9605 27.9093 36.1791 27.88 36.3871 27.88C37.1338 27.88 37.7338 28.12 38.1871 28.6C38.6458 29.0747 38.8751 29.704 38.8751 30.488C38.8751 31.2613 38.6538 31.8853 38.2111 32.36C37.7738 32.8347 37.1711 33.08 36.4031 33.096C35.8538 33.1067 35.3578 32.9653 34.9151 32.672C34.4725 32.3787 34.1551 31.9467 33.9631 31.376L32.8431 31.712C33.0885 32.4907 33.5311 33.1067 34.1711 33.56C34.8165 34.008 35.5658 34.232 36.4191 34.232Z" fill="#231F20"/>
</svg>

<svg width="54" height="54" fill="none" xmlns="http://www.w3.org/2000/svg"><path d="M54 27c0 14.912-12.088 27-27 27S0 41.912 0 27 12.088 0 27 0s27 12.088 27 27zM3.5 27c0 12.979 10.521 23.5 23.5 23.5S50.5 39.979 50.5 27 39.979 3.5 27 3.5 3.5 14.021 3.5 27z" fill="#DDD"/><path d="M27 1.75c0-.967.784-1.756 1.749-1.693a27 27 0 010 53.886c-.965.063-1.749-.726-1.749-1.693 0-.967.785-1.743 1.748-1.815a23.501 23.501 0 000-46.87C27.785 3.493 27 2.716 27 1.75z" fill="#2E1AAD"/><path d="M14 32.98h10.08v-2.56h-5.86l3.22-2.82a29.64 29.64 0 001.45-1.34c.393-.4.69-.833.89-1.3.2-.473.3-1.067.3-1.78 0-.967-.213-1.817-.64-2.55a4.476 4.476 0 00-1.76-1.71c-.74-.413-1.58-.62-2.52-.62-1.027 0-1.927.197-2.7.59a4.383 4.383 0 00-1.81 1.67c-.433.72-.65 1.573-.65 2.56h2.8c-.013-.4.077-.77.27-1.11.193-.347.463-.623.81-.83.353-.213.76-.32 1.22-.32.66 0 1.187.217 1.58.65.4.427.6.97.6 1.63 0 .307-.093.637-.28.99-.187.353-.507.73-.96 1.13L14 30.62v2.36zm16.032-10.5h1.208L28.168 34H26.96l3.072-11.52zm6.387 11.752c.71 0 1.339-.157 1.888-.472.555-.32.99-.76 1.304-1.32.32-.565.48-1.216.48-1.952 0-.72-.147-1.355-.44-1.904a3.165 3.165 0 00-1.232-1.28c-.528-.31-1.141-.461-1.84-.456l3.376-3.224V22.48H33.3v1.128h5.16l-3.96 3.656.592.936a3.37 3.37 0 01.64-.232c.23-.059.448-.088.656-.088.747 0 1.347.24 1.8.72.459.475.688 1.104.688 1.888 0 .773-.221 1.397-.664 1.872-.437.475-1.04.72-1.808.736a2.54 2.54 0 01-1.488-.424c-.443-.293-.76-.725-.952-1.296l-1.12.336c.245.779.688 1.395 1.328 1.848.645.448 1.395.672 2.248.672z" fill="#231F20"/></svg>
